svgs/sharp-duotone-regular/windsock.svg

<svg xmlns="http://www.w3.org/2000/svg" viewBox="0 0 512 512"><!--! Font Awesome Pro 7.1.0 by @fontawesome - https://fontawesome.com License - https://fontawesome.com/license (Commercial License) Copyright 2025 Fonticons, Inc. --><path opacity=".4" fill="currentColor" d="M176 107l64 13.3 0 175.3-64 13.3 0-201.9zm240 50l48 10 0 81.9-48 10 0-101.9z"/><path fill="currentColor" d="M48 0l0 96 80 0 0-48 384 80 0 160-384 80 0-48-80 0 0 192-48 0 0-512 48 0zm0 144l0 128 80 0 0-128-80 0zm128-37l0 201.9 64-13.3 0-175.3-64-13.3zm112 23.3l0 155.3 80-16.7 0-121.9-80-16.7zM416 157l0 101.9 48-10 0-81.9-48-10z"/></svg>

<svg xmlns="http://www.w3.org/2000/svg" viewBox="0 0 512 512"><!--! Font Awesome Pro 6.7.2 by @fontawesome - https://fontawesome.com License - https://fontawesome.com/license (Commercial License) Copyright 2024 Fonticons, Inc. --><defs><style>.fa-secondary{opacity:.4}</style></defs><path class="fa-secondary" d="M176 107l64 13.3 0 175.3L176 309 176 107zm240 50l48 10 0 81.9-48 10L416 157z"/><path class="fa-primary" d="M48 0l0 24 0 72 80 0 0-48 48 10 336 70 0 160L176 358l-48 10 0-48-80 0 0 168 0 24L0 512l0-24L0 296 0 120 0 24 0 0 48 0zm0 144l0 128 80 0 0-128-80 0zm128-37L176 309l64-13.3 0-175.3L176 107zm112 23.3l0 155.3L368 269 368 147l-80-16.7zM416 157L416 259l48-10 0-81.9-48-10z"/></svg>
